outputs/icons/general/reorder_round.svg

<svg xmlns="http://www.w3.org/2000/svg" width="1200" height="1200" fill="none"><path fill="#000" fill-rule="evenodd" d="M450.002 400c55.003 0 100.003-45 100.003-100s-45-100-100.003-100c-55 0-100 45-100 100s45 100 100 100M450 499.997c-55 0-100 44.998-100 99.998s45 100 100 100 100-45 100-100-45-99.998-100-99.998m0 300.008c-55 0-100 45-100 100s45 100 100 100 100-45 100-100-45-100-100-100M758.11 400c55 0 100-45 100-100s-45-100-100-100-100 45-100 100 45 100 100 100m-.005 99.997c-55 0-100 44.998-100 99.998s45 100 100 100 100-45 100-100-45-99.998-100-99.998m0 300.008c-55 0-100 45-100 100s45 100 100 100 100-45 100-100-45-100-100-100"/></svg>

<svg width="1200" height="1200" viewBox="0 0 1200 1200" fill="none" xmlns="http://www.w3.org/2000/svg"><path fill-rule="evenodd" d="M450.002 400C505.005 400 550.005 355 550.005 300C550.005 245 505.005 200 450.002 200C395.002 200 350.002 245 350.002 300C350.002 355 395.002 400 450.002 400ZM450 499.997C395 499.997 350 544.995 350 599.995C350 654.995 395 699.995 450 699.995C505 699.995 550 654.995 550 599.995C550 544.995 505 499.997 450 499.997ZM450 800.005C395 800.005 350 845.005 350 900.005C350 955.005 395 1000.005 450 1000.005C505 1000.005 550 955.005 550 900.005C550 845.005 505 800.005 450 800.005Z" fill="black"/><path fill-rule="evenodd" d="M758.11 400C813.11 400 858.11 355 858.11 300C858.11 245 813.11 200 758.11 200C703.11 200 658.11 245 658.11 300C658.11 355 703.11 400 758.11 400ZM758.105 499.997C703.105 499.997 658.105 544.995 658.105 599.995C658.105 654.995 703.105 699.995 758.105 699.995C813.105 699.995 858.105 654.995 858.105 599.995C858.105 544.995 813.105 499.997 758.105 499.997ZM758.105 800.005C703.105 800.005 658.105 845.005 658.105 900.005C658.105 955.005 703.105 1000.005 758.105 1000.005C813.105 1000.005 858.105 955.005 858.105 900.005C858.105 845.005 813.105 800.005 758.105 800.005Z" fill="black"/></svg>
